src/assets/img/delete_account.svg

<svg width="189" height="126" viewBox="0 0 189 126" fill="none" xmlns="http://www.w3.org/2000/svg">
<g clip-path="url(#clip0_2566_4813)">
<path d="M94.5416 63.4893V101.363V101.682" stroke="#2F3645" stroke-width="3" stroke-miterlimit="10" stroke-linecap="round"/>
<path d="M94.5416 102.933V102.776" stroke="#2F3645" stroke-width="3" stroke-miterlimit="10" stroke-linecap="round"/>
<path d="M180.567 102.809L180.606 25.2256C184.868 26.4279 187.8 29.6434 187.971 33.5008C187.971 33.6655 187.981 33.8281 187.981 33.995V112.582C187.981 119.428 181.682 124.977 173.916 124.977H15.086C7.31605 124.977 1.02081 119.426 1.02081 112.582V33.8859C1.06557 29.8916 4.07466 26.5285 8.48602 25.3154L8.52438 105.622V106.493C8.52438 110.558 12.4946 113.848 17.4409 113.953H85.3885C90.3476 113.953 94.3839 113.953 94.5373 102.37C94.5373 102.432 94.5373 102.496 94.5373 102.561C94.5373 102.625 94.5373 102.702 94.5373 102.775V101.679C94.5373 113.953 98.6354 113.953 103.69 113.953H171.649C173.91 113.935 176.103 113.167 177.884 111.769C179.54 110.419 180.565 108.56 180.565 106.493V104.035" fill="#E6B9A6"/>
<path d="M180.567 102.809L180.606 25.2256C184.868 26.4279 187.8 29.6434 187.971 33.5008C187.971 33.6655 187.981 33.8281 187.981 33.995V112.582C187.981 119.428 181.682 124.977 173.916 124.977H15.086C7.31605 124.977 1.02081 119.426 1.02081 112.582V33.8859C1.06557 29.8916 4.07466 26.5285 8.48602 25.3154L8.52438 105.622V106.493C8.52438 110.558 12.4946 113.848 17.4409 113.953H85.3885C90.3476 113.953 94.3839 113.953 94.5373 102.37C94.5373 102.432 94.5373 102.496 94.5373 102.561C94.5373 102.625 94.5373 102.702 94.5373 102.775V101.679C94.5373 113.953 98.6354 113.953 103.69 113.953H171.649C173.91 113.935 176.103 113.167 177.884 111.769C179.54 110.419 180.565 108.56 180.565 106.493V104.035" stroke="#2F3645" stroke-width="3" stroke-miterlimit="10"/>
<path d="M180.565 25.2256V90.9351V102.809V104.035" stroke="#2F3645" stroke-width="3" stroke-miterlimit="10"/>
<path d="M180.565 105.622C180.56 107.418 179.937 109.156 178.801 110.543C178.779 110.573 178.756 110.6 178.735 110.626C177.858 111.656 176.773 112.486 175.55 113.061C174.328 113.635 172.998 113.941 171.649 113.957" stroke="#2F3645" stroke-width="3" stroke-miterlimit="10"/>
<path d="M94.5415 101.682C94.5415 101.874 94.5415 102.062 94.5415 102.249C94.5394 102.257 94.5394 102.266 94.5415 102.274C94.5415 102.3 94.5415 102.323 94.5415 102.349V102.373" stroke="#2F3645" stroke-width="3" stroke-miterlimit="10"/>
<path d="M17.4344 113.953C12.4882 113.837 8.52435 110.153 8.52435 105.622V25.3154" stroke="#2F3645" stroke-width="3" stroke-miterlimit="10"/>
<path d="M180.565 13.2964V90.9352C180.565 95.5371 176.467 99.2682 171.412 99.2682L103.695 95.3296C95.4771 95.3296 94.6055 97.5695 94.5415 101.363C94.5415 101.647 94.5415 101.945 94.5415 102.248C94.5394 102.257 94.5394 102.266 94.5415 102.274V102.563C94.5415 102.499 94.5415 102.435 94.5415 102.372V102.349C94.4968 97.9974 94.2198 95.3296 85.3928 95.3296L17.671 99.2682C12.616 99.2682 8.52435 95.5371 8.52435 90.9352V13.2964C8.52435 8.6924 12.6224 4.95273 17.688 4.95273L61.8528 1.68372L85.3885 1.02051C90.4435 1.02051 94.5415 6.72415 94.5415 11.326C94.5415 6.72415 98.6396 1.02051 103.695 1.02051L127.092 1.68372L171.419 4.96128C176.467 4.96128 180.565 8.6924 180.565 13.2964Z" fill="white" stroke="#2F3645" stroke-width="3" stroke-linejoin="round"/>
<path d="M111 25C111.789 27.5127 114.895 31.8572 121 29.1338" stroke="#2F3645" stroke-width="3" stroke-linecap="round"/>
<path d="M73 25C72.2105 27.5127 69.1053 31.8572 63 29.1338" stroke="#2F3645" stroke-width="3" stroke-linecap="round"/>
<path d="M82 52.3145C83 46.3145 104 46.8146 106 52.3145" stroke="#2F3645" stroke-width="3" stroke-linecap="round"/>
<circle cx="77" cy="36" r="5" fill="#2F3645"/>
<circle cx="108" cy="36" r="5" fill="#2F3645"/>
<path fill-rule="evenodd" clip-rule="evenodd" d="M65.7315 43.3572L70.9809 53.7727L70.9681 53.7728C71.7562 54.9646 72.2249 56.2742 72.2314 57.324C71.6987 61.5555 69.4447 63.0327 65.8883 63.0547C62.3318 63.0766 59.6987 61.0555 59.3524 57.4036C59.3459 56.3538 59.8009 55.0385 60.577 53.837L60.5768 53.837L65.7315 43.3572Z" fill="#76D5FF"/>
</g>
<defs>
<clipPath id="clip0_2566_4813">
<rect width="189" height="126" fill="white"/>
</clipPath>
</defs>
</svg>

<svg width="189" height="126" fill="none" xmlns="http://www.w3.org/2000/svg"><g clip-path="url(#a)"><path d="M94.542 63.49v38.192M94.542 102.933v-.157" stroke="#2F3645" stroke-width="3" stroke-miterlimit="10" stroke-linecap="round"/><path d="m180.567 102.809.039-77.583c4.262 1.202 7.194 4.417 7.365 8.275 0 .165.01.327.01.494v78.587c0 6.846-6.299 12.395-14.065 12.395H15.086c-7.77 0-14.065-5.551-14.065-12.395V33.886c.045-3.994 3.054-7.358 7.465-8.57l.038 80.306v.871c0 4.065 3.97 7.355 8.917 7.46h67.947c4.96 0 8.996 0 9.15-11.583v.405-1.096c0 12.274 4.097 12.274 9.152 12.274h67.959a10.231 10.231 0 0 0 6.235-2.184c1.656-1.35 2.681-3.209 2.681-5.276v-2.458" fill="#E6B9A6"/><path d="m180.567 102.809.039-77.583c4.262 1.202 7.194 4.417 7.365 8.275 0 .165.01.327.01.494v78.587c0 6.846-6.299 12.395-14.065 12.395H15.086c-7.77 0-14.065-5.551-14.065-12.395V33.886c.045-3.994 3.054-7.358 7.465-8.57l.038 80.306v.871c0 4.065 3.97 7.355 8.917 7.46h67.947c4.96 0 8.996 0 9.15-11.583v.405-1.096c0 12.274 4.097 12.274 9.152 12.274h67.959a10.231 10.231 0 0 0 6.235-2.184c1.656-1.35 2.681-3.209 2.681-5.276v-2.458M180.565 25.226v78.809" stroke="#2F3645" stroke-width="3" stroke-miterlimit="10"/><path d="M180.565 105.622a7.8 7.8 0 0 1-1.764 4.921c-.022.03-.045.057-.066.083a9.48 9.48 0 0 1-3.185 2.435 9.439 9.439 0 0 1-3.901.896M94.541 101.682v.567a.05.05 0 0 0 0 .025v.099M17.434 113.953c-4.946-.116-8.91-3.8-8.91-8.331V25.315" stroke="#2F3645" stroke-width="3" stroke-miterlimit="10"/><path d="M180.565 13.296v77.64c0 4.601-4.098 8.332-9.153 8.332l-67.717-3.938c-8.218 0-9.09 2.24-9.153 6.033v.885a.054.054 0 0 0 0 .026v.289-.214c-.045-4.352-.322-7.02-9.15-7.02l-67.721 3.94c-5.055 0-9.147-3.732-9.147-8.334V13.296c0-4.604 4.098-8.343 9.164-8.343l44.165-3.27 23.535-.662c5.055 0 9.153 5.703 9.153 10.305 0-4.602 4.099-10.305 9.154-10.305l23.397.663 44.327 3.277c5.048 0 9.146 3.731 9.146 8.335z" fill="#fff" stroke="#2F3645" stroke-width="3" stroke-linejoin="round"/><path d="M111 25c.789 2.513 3.895 6.857 10 4.134M73 25c-.79 2.513-3.895 6.857-10 4.134M82 52.315c1-6 22-5.5 24 0" stroke="#2F3645" stroke-width="3" stroke-linecap="round"/><circle cx="77" cy="36" r="5" fill="#2F3645"/><circle cx="108" cy="36" r="5" fill="#2F3645"/><path fill-rule="evenodd" clip-rule="evenodd" d="m65.731 43.357 5.25 10.416h-.013c.788 1.192 1.257 2.501 1.263 3.551-.532 4.232-2.786 5.709-6.343 5.73-3.556.023-6.19-1.998-6.536-5.65-.006-1.05.449-2.366 1.225-3.567l5.154-10.48z" fill="#76D5FF"/></g><defs><clipPath id="a"><path fill="#fff" d="M0 0h189v126H0z"/></clipPath></defs></svg>
